X:229
T:Toss the Feathers
R:reel
D:The Salmon's Leap
Z:transcribed by Dave Marshall
M:C|
K:Dmix
|: D2AD EDAD | EDAD EAGE | D2AD EDEG |1 AddB cAGE :|2 AcGE EDDc |
Addc d2cd | edcd edd2 | eaag edcd | edcd edd2 |
e~a3 efge | ~d3B cAGE | D2ED EGAB | cded cAGE |
